X: 09065
T: LEAF'S WALTZ
C: Bob McQuillen 24 Aug 92
B: Bob's Note Book 9 # 65
N: waltz
N: If a tune gets written in France, does that make it a French Tune? I dunno,
N: but  this  tune a ppeared in Scotland last summer (writing this in Feb '93)
N: when Sarah Bauhan and Leaf Seligmann and I were over there on vacation.  So
N: perhaps it's a Scottish Tune.  You can decide that one. Anyway, it's Leaf's
N: waltz, no matter what, and it comes to her with love from her friend Mac.
M: 3/4
L: 1/8
Z: 2004 John Chambers
K: G
D2 \
| "G"G3  A B2 | "Bm"d4    Bd |  "C"e2 d2 B2 | "D7"d3  e f2 \
| "G"g3  f e2 | "Em"d2 B2 d2 | "Am"B3  A G2 |  "D"E4 D2    |
| "G"G3  A B2 | "Bm"d4    Bd |  "C"e3  d B2 | "D7"d2 e2 f2 \
| "G"g2 d2 e2 |  "C"d2 c2 B2 | "D7"A6       |  "G"G4      :|
|: a2 \
| "G"b3  a g2 |  "C"a4    ga |  "G"b2 a2 g2 |  "C"e4 d2 \
| "G"g3  f e2 | "Em"d g3  e2 | "Am"d3  c B2 | "D7"A4 d2 |
| "G"B3  A B2 | "D7"c4    Bc |  "G"d2 e2 f2 |  "C"g4 a2 \
| "G"b2 g3  e |  "C"d2 B2 c2 | "D7"B3  G A2 |  "G"G4   :|

%%sep 1 1 500

%%sep 1 1 500

